X: 315
T: Zhong yangyan
%%abc-version 2.0
%%abcx-abcm2ps-target-version 5.9.1 (29 Sep 2008)
%%abc-creator hum2abc beta
%%abcx-conversion-date 2013/10/02 07:52:30
%%abc-edited-by Helmut Schaffrath
%%humdrum-veritas 3275184177
%%humdrum-veritas-data 3785873193
%%continueall 1
%%barnumbers 0
L: 1/8
M: 2/4
K: G
B A G E [I:setbarnb 1]| 
d e d B | 
d A/ B/ G F | 
EB,3 | 
d e d B | 
d A/ B/ G F | 
E/ D/ E A E/ F/ | 
ED3 |]  



